X:1
T:Jingle Bells
%%score { 1 | 2 }
L:1/8
M:4/4
K:C
V:1 treble nm="Piano" snm="Pno."
V:2 bass 
V:1
 !1!G,2 !4!E2 D2 C2 | G,6 G,G, | G,2 E2 D2 C2 | A,6 z2 | A,2 F2 E2 D2 | B,6 z2 | %6
w: Da shing through the|snow, in a|one horse o- pen|sleigh,|O'er the fields we|go|
w: ||||||
 G2 G2 !4!F2 !2!D2 | !4!E6 z2 | G,2 E2 D2 C2 | G,6 z2 | G,2 E2 D2 C2 | A,6 A,2 | A,2 !3!F2 E2 D2 | %13
w: lau ging all the|way|Bells on bob- tail|ring|ma- king spi- rits|bright what|fun it is to|
w: |||||||
 G2 G2 G2 G2 | A2 G2 F2 !2!D2 | C4 [B,G]4 | [CE]2 [CE]2 [CE]4 | [CE]2 [CE]2 [CE]4 | E2 G2 C3 D | %19
w: ride and sing a|slei- ghing song to-|night Oh!|Jin- gle bells,|Jin- gle bells,|jin- gle all the|
w: ||||||
 [CE]6 z2 | F2 F2 F3 F | F2 E2 E2 EE | E2 D2 D2 E2 | D4 [B,G]4 | [CE]2 [CE]2 [CE]4 | %25
w: way|Oh! What fun it|is to ride in a|one horse o- pen|sleigh *|Jin- gle bells|
w: ||||||
 [CE]2 [CE]2 [CE]4 | E2 G2 C3 D | [CE]6 z2 | F2 F2 F3 F | F2 E2 E2 EE | G2 G2 F2 D2 | C8 |] %32
w: jin- gle bells|jin- gle all the|way|Oh! What fun it|is to ride in a|one horse o- pen||
w: ||||||sleigh|
V:2
 C,,4 G,,4 | C,,4 G,,4 | C,,4 G,,4 | C,,4 G,,4 | F,,4 C,4 | F,,4 C,4 | G,,4 B,,4 | C,4 E,4 | %8
 C,,4 G,,4 | C,,4 G,,4 | C,,4 G,,4 | F,,4 C,4 | F,,4 C,4 | G,,4 D,4 | G,,4 B,,4 | C,4 [G,,D,]4 | %16
 C,4 B,,4 | A,,4 G,,4 | C,4 G,,4 | C,4 !2!G,,4 | F,,4 A,,4 | C,,4 G,,4 | D,,4 ^F,,4 | G,,4 G,,4 | %24
 !1!C,4 B,,4 | A,,4 G,,4 | C,4 G,,4 | C,4 G,,4 | F,,4 A,,4 | C,,4 G,,4 | !5!G,,4 B,,4 | [C,E,]8 |] %32

